Obsidian-SemiLight/actions/22s/tool-animator.svg

<svg viewBox="0 0 22 22" xmlns="http://www.w3.org/2000/svg"><path d="m3 3v4 1 10 1h16v-1-1-1-8-1-2.0996094l-12 1.0996094v-1l12-1v-1h-12zm1 5h14v2h-14zm0 3h3v3h-3zm4 0h6v3h-6zm7 0h3v3h-3zm-11 4h10v1h-10zm11 0h3v1h-3zm-11 2h10 1 3v1h-14z" fill="#4d4d4d"/></svg>

<svg xmlns="http://www.w3.org/2000/svg" viewBox="0 0 22 22">
  <defs id="defs3051">
    <style type="text/css" id="current-color-scheme">
      .ColorScheme-Text {
        color:#4d4d4d;
      }
      </style>
  </defs>
 <path 
    style="fill:currentColor;fill-opacity:1;stroke:none" 
    d="M 3 3 L 3 7 L 3 8 L 3 18 L 3 19 L 19 19 L 19 18 L 19 17 L 19 16 L 19 8 L 19 7 L 19 4.9003906 L 7 6 L 7 5 L 19 4 L 19 3 L 7 3 L 3 3 z M 4 8 L 18 8 L 18 10 L 4 10 L 4 8 z M 4 11 L 7 11 L 7 14 L 4 14 L 4 11 z M 8 11 L 14 11 L 14 14 L 8 14 L 8 11 z M 15 11 L 18 11 L 18 14 L 15 14 L 15 11 z M 4 15 L 14 15 L 14 16 L 4 16 L 4 15 z M 15 15 L 18 15 L 18 16 L 15 16 L 15 15 z M 4 17 L 14 17 L 15 17 L 18 17 L 18 18 L 4 18 L 4 17 z "
    class="ColorScheme-Text"
    />  
</svg>
